src/assets/img/icon-eat.svg

<svg width="52" height="52" viewBox="0 0 52 52" fill="none" xmlns="http://www.w3.org/2000/svg">
<g clip-path="url(#clip0_107_1378)">
<path d="M26.6421 46.1656C39.3904 46.1656 49.7249 35.831 49.7249 23.0828C49.7249 10.3345 39.3904 0 26.6421 0C13.8938 0 3.55933 10.3345 3.55933 23.0828C3.55933 35.831 13.8938 46.1656 26.6421 46.1656Z" fill="#D8ECFE"/>
<path d="M49.7247 23.0832C49.7247 35.8314 39.3906 46.1655 26.6424 46.1655C19.8519 46.1655 13.7459 43.2331 9.52194 38.5661C13.6173 42.2718 19.0483 44.5279 25.0049 44.5279C37.7531 44.5279 48.0872 34.1938 48.0872 21.4456C48.0872 15.4859 45.8289 10.0529 42.1201 5.95746C46.7903 10.1814 49.7247 16.2895 49.7247 23.0832Z" fill="#C4E2FF"/>
<path d="M26.6421 39.1742C35.5292 39.1742 42.7336 31.9698 42.7336 23.0828C42.7336 14.1957 35.5292 6.99127 26.6421 6.99127C17.755 6.99127 10.5506 14.1957 10.5506 23.0828C10.5506 31.9698 17.755 39.1742 26.6421 39.1742Z" fill="#B3DAFE"/>
<path d="M42.7336 23.0832C42.7336 31.97 35.5292 39.1744 26.6424 39.1744C21.781 39.1744 17.4243 37.0196 14.4742 33.6128C17.2968 36.0581 20.9784 37.5368 25.0048 37.5368C33.8917 37.5368 41.096 30.3324 41.096 21.4456C41.096 17.4191 39.6173 13.7376 37.1719 10.915C40.5787 13.8651 42.7336 18.2218 42.7336 23.0832Z" fill="#8AC9FE"/>
<path d="M14.7151 51.9839L14.3724 51.9386C13.3588 51.8048 12.6457 50.8746 12.7797 49.861L15.9101 26.1626L19.9233 26.6927L16.7927 50.3911C16.6588 51.4046 15.7286 52.1177 14.7151 51.9839Z" fill="#685E68"/>
<path d="M19.923 26.6927L16.7994 50.3383C16.6615 51.3812 15.7042 52.1148 14.6613 51.9769L14.4251 51.9455C14.0237 51.8922 13.6685 51.7187 13.3916 51.4647C14.1262 51.2808 14.7083 50.6642 14.8139 49.868L17.9103 26.4272L19.923 26.6927Z" fill="#554E56"/>
<path d="M20.2449 8.80215L16.2117 8.26932C15.9148 8.23012 15.6425 8.4389 15.6033 8.73574L14.3924 17.9023C14.2122 19.2662 14.8064 20.5748 15.8625 21.2962C16.2556 21.5648 16.4548 22.0395 16.3924 22.5115L15.9102 26.1626L19.9233 26.6927L20.4056 23.0416C20.4679 22.5696 20.7834 22.1629 21.2328 22.0056C22.44 21.5831 23.3536 20.4737 23.5337 19.1099L24.7446 9.94326C24.7838 9.64643 24.575 9.37408 24.2782 9.33488L20.2449 8.80215Z" fill="#E2DEE2"/>
<path d="M24.7447 9.94316L23.5335 19.1101C23.3537 20.4738 22.4394 21.5836 21.2324 22.0059C20.783 22.1626 20.4674 22.5692 20.4057 23.0415L19.923 26.6928L17.9071 26.4263L18.4202 22.4427C18.4819 21.9704 18.7975 21.5639 19.2469 21.4071C20.4539 20.9839 21.3682 19.8751 21.548 18.5114L22.7592 9.34452C22.7686 9.27141 22.7633 9.19931 22.7445 9.13239L24.2786 9.33508C24.5754 9.37367 24.7834 9.64643 24.7447 9.94316Z" fill="#CBC4CC"/>
<path d="M19.4686 8.69966L18.3807 16.9343C18.3295 17.3283 17.992 17.6157 17.6053 17.6157C17.5708 17.6157 17.5363 17.6136 17.5018 17.6094C17.0724 17.5519 16.7704 17.1579 16.8267 16.7295L17.9146 8.49473V8.49371L19.4686 8.69966Z" fill="#B5ADB6"/>
<path d="M22.5744 9.11032L21.4865 17.345C21.4342 17.739 21.0978 18.0264 20.7111 18.0264C20.6766 18.0264 20.6421 18.0243 20.6076 18.0191C20.1782 17.9626 19.8762 17.5687 19.9325 17.1392L21.0204 8.90448L22.5744 9.11032Z" fill="#B5ADB6"/>
<path d="M38.8652 51.9514L38.5215 51.9881C37.505 52.0969 36.5928 51.361 36.484 50.3444L33.9409 26.5758L37.9659 26.1451L40.509 49.9138C40.6177 50.9304 39.8818 51.8426 38.8652 51.9514Z" fill="#685E68"/>
<path d="M38.8116 51.957L38.5754 51.982C38.1699 52.0249 37.7802 51.9382 37.4489 51.7543C38.125 51.4031 38.5515 50.6633 38.4657 49.8607L35.9515 26.3603L37.9662 26.145L40.5035 49.8607C40.6154 50.9067 39.8577 51.8452 38.8116 51.957Z" fill="#554E56"/>
<path d="M37.9658 26.1452L33.9408 26.5759L33.6292 23.6642C33.5776 23.1825 33.3431 22.739 32.9739 22.4254L32.1299 21.7084C31.6833 21.329 31.4381 20.7639 31.466 20.1786L32.1092 6.71214C32.1537 5.78194 32.8693 5.02295 33.7953 4.92384C34.8327 4.81285 35.7637 5.56381 35.8747 6.60124L37.9658 26.1452Z" fill="#E2DEE2"/>
<path d="M37.9662 26.1451L35.9545 26.3604L33.8635 6.82066C33.7914 6.15185 33.3796 5.60216 32.8174 5.32625C33.0902 5.10782 33.4266 4.9626 33.7956 4.92391C33.8635 4.9166 33.9315 4.91345 33.9983 4.91345C34.9523 4.91345 35.7706 5.63141 35.8751 6.60111L37.9662 26.1451Z" fill="#CBC4CC"/>
<path d="M44.9456 3.06205C44.5474 4.33315 43.513 6.64321 41.1013 7.54497C40.9044 7.61859 40.9044 7.90192 41.1013 7.97554C43.5131 8.8773 44.5475 11.1874 44.9456 12.4585C45.013 12.6734 45.3185 12.6734 45.386 12.4585C45.7842 11.1874 46.8186 8.8773 49.2303 7.97554C49.4272 7.90192 49.4272 7.61859 49.2303 7.54497C46.8185 6.64321 45.7841 4.33315 45.386 3.06205C45.3186 2.84707 45.0131 2.84707 44.9456 3.06205Z" fill="#FDB441"/>
<path d="M49.2303 7.97567C46.8185 8.87713 45.7844 11.1871 45.3864 12.4584C45.3187 12.6737 45.013 12.6737 44.9453 12.4584C44.7678 11.8916 44.4647 11.1211 43.9701 10.3584C44.4156 9.40955 44.3539 8.4755 45.692 7.97557C45.8888 7.90174 45.8888 7.61882 45.692 7.54499C44.3539 7.04415 44.4156 6.1102 43.9701 5.16132C44.4647 4.39959 44.7678 3.62812 44.9453 3.06228C45.013 2.847 45.3187 2.847 45.3864 3.06228C45.7844 4.33277 46.8185 6.64262 49.2303 7.54499C49.4272 7.61892 49.4272 7.90184 49.2303 7.97567Z" fill="#FEA613"/>
<path d="M5.44338 40.156C5.12736 41.1647 4.30643 42.998 2.39242 43.7137C2.23614 43.7721 2.23614 43.9971 2.39242 44.0554C4.30643 44.7711 5.12726 46.6043 5.44338 47.6131C5.4968 47.7837 5.7394 47.7837 5.79282 47.6131C6.10884 46.6044 6.92977 44.7712 8.84378 44.0554C9.00006 43.9971 9.00006 43.7721 8.84378 43.7137C6.92977 42.9981 6.10894 41.1648 5.79282 40.156C5.7393 39.9854 5.4968 39.9854 5.44338 40.156Z" fill="#FDB441"/>
<path d="M8.84367 44.0551C6.92967 44.7705 6.10894 46.6037 5.79312 47.6126C5.7394 47.7834 5.4968 47.7834 5.44308 47.6126C5.30223 47.1628 5.06166 46.5513 4.66907 45.9461C5.02256 45.193 4.97362 44.4518 6.03562 44.055C6.19181 43.9964 6.19181 43.7719 6.03562 43.7133C4.97362 43.3158 5.02256 42.5746 4.66907 41.8215C5.06166 41.217 5.30223 40.6047 5.44308 40.1557C5.4968 39.9849 5.7394 39.9849 5.79312 40.1557C6.10894 41.164 6.92967 42.9972 8.84367 43.7132C8.99986 43.772 8.99986 43.9965 8.84367 44.0551Z" fill="#FEA613"/>
</g>
<defs>
<clipPath id="clip0_107_1378">
<rect width="52" height="52" fill="white"/>
</clipPath>
</defs>
</svg>

<svg xmlns="http://www.w3.org/2000/svg" width="52" height="52" fill="none"><g clip-path="url(#a)"><path fill="#D8ECFE" d="M26.64 46.17a23.08 23.08 0 1 0 0-46.17 23.08 23.08 0 0 0 0 46.17Z"/><path fill="#C4E2FF" d="M49.72 23.08a23.08 23.08 0 0 1-40.2 15.49 23.08 23.08 0 0 0 32.6-32.6 23.03 23.03 0 0 1 7.6 17.11Z"/><path fill="#B3DAFE" d="M26.64 39.17a16.1 16.1 0 1 0 0-32.18 16.1 16.1 0 0 0 0 32.18Z"/><path fill="#8AC9FE" d="M42.73 23.08a16.1 16.1 0 0 1-28.26 10.53 16.1 16.1 0 0 0 22.7-22.7c3.4 2.96 5.56 7.31 5.56 12.17Z"/><path fill="#685E68" d="m14.72 51.98-.35-.04a1.85 1.85 0 0 1-1.59-2.08l3.13-23.7 4.01.53-3.13 23.7a1.85 1.85 0 0 1-2.07 1.6Z"/><path fill="#554E56" d="M19.92 26.7 16.8 50.33a1.9 1.9 0 0 1-2.14 1.64l-.23-.03c-.4-.06-.76-.23-1.04-.49a1.9 1.9 0 0 0 1.42-1.6l3.1-23.43 2.01.26Z"/><path fill="#E2DEE2" d="m20.24 8.8-4.03-.53a.54.54 0 0 0-.6.47l-1.22 9.16a3.54 3.54 0 0 0 1.47 3.4c.4.26.6.74.53 1.21l-.48 3.65 4.01.53.49-3.65c.06-.47.37-.88.82-1.03a3.54 3.54 0 0 0 2.3-2.9l1.21-9.17a.54.54 0 0 0-.46-.6l-4.04-.54Z"/><path fill="#CBC4CC" d="m24.74 9.94-1.2 9.17a3.54 3.54 0 0 1-2.3 2.9c-.46.15-.77.56-.83 1.03l-.49 3.65-2.01-.26.51-3.99c.06-.47.38-.88.83-1.03a3.54 3.54 0 0 0 2.3-2.9l1.2-9.17c.02-.07.01-.14 0-.2l1.53.2c.3.03.5.3.46.6Z"/><path fill="#B5ADB6" d="m19.47 8.7-1.09 8.23a.78.78 0 1 1-1.55-.2l1.08-8.24 1.56.21ZM22.57 9.11l-1.08 8.23a.78.78 0 1 1-1.56-.2l1.09-8.24 1.55.21Z"/><path fill="#685E68" d="m38.87 51.95-.35.04a1.85 1.85 0 0 1-2.04-1.65l-2.54-23.76 4.03-.43L40.5 49.9a1.85 1.85 0 0 1-1.64 2.04Z"/><path fill="#554E56" d="m38.81 51.96-.23.02c-.41.04-.8-.04-1.13-.23a1.9 1.9 0 0 0 1.02-1.89l-2.52-23.5 2.02-.21 2.53 23.71a1.9 1.9 0 0 1-1.69 2.1Z"/><path fill="#E2DEE2" d="m37.97 26.15-4.03.43-.31-2.92a1.89 1.89 0 0 0-.66-1.23l-.84-.72c-.45-.38-.7-.95-.66-1.53L32.1 6.7a1.89 1.89 0 0 1 3.76-.1l2.1 19.54Z"/><path fill="#CBC4CC" d="m37.97 26.15-2.02.21-2.09-19.54a1.89 1.89 0 0 0-1.04-1.5 1.88 1.88 0 0 1 1.18-.4c.95 0 1.77.71 1.88 1.68l2.09 19.55Z"/><path fill="#FDB441" d="M44.95 3.06c-.4 1.27-1.44 3.58-3.85 4.48-.2.08-.2.36 0 .44 2.41.9 3.45 3.2 3.85 4.48.06.21.37.21.44 0 .4-1.27 1.43-3.58 3.84-4.48.2-.08.2-.36 0-.44-2.41-.9-3.45-3.2-3.84-4.48-.07-.21-.38-.21-.44 0Z"/><path fill="#FEA613" d="M49.23 7.98c-2.41.9-3.45 3.2-3.84 4.48a.23.23 0 0 1-.44 0 8.66 8.66 0 0 0-.98-2.1c.45-.95.38-1.88 1.72-2.38.2-.08.2-.36 0-.44-1.34-.5-1.27-1.43-1.72-2.38.5-.76.8-1.53.98-2.1a.23.23 0 0 1 .44 0c.4 1.27 1.43 3.58 3.84 4.48.2.08.2.36 0 .44Z"/><path fill="#FDB441" d="M5.44 40.16c-.31 1-1.13 2.84-3.05 3.55-.15.06-.15.29 0 .35 1.92.71 2.74 2.54 3.05 3.55.06.17.3.17.35 0 .32-1 1.14-2.84 3.05-3.55.16-.06.16-.29 0-.35-1.91-.71-2.73-2.55-3.05-3.55-.05-.17-.3-.17-.35 0Z"/><path fill="#FEA613" d="M8.84 44.06c-1.91.71-2.73 2.54-3.05 3.55a.18.18 0 0 1-.35 0 6.87 6.87 0 0 0-.77-1.66c.35-.76.3-1.5 1.37-1.9a.18.18 0 0 0 0-.34c-1.07-.4-1.02-1.14-1.37-1.89.4-.6.63-1.22.77-1.66.06-.18.3-.18.35 0 .32 1 1.14 2.84 3.05 3.55.16.06.16.29 0 .35Z"/></g><defs><clipPath id="a"><path fill="#fff" d="M0 0h52v52H0z"/></clipPath></defs></svg>
